!!!!SEGMENT: pl-wtm--r-1226--007_lodwigowski-edward-stefan--z-tamtej-strony-jezioreczka.krn
!!!cenid: 18xx:1923
!!!COM: Łodwigowski, Edward Stefan
!!!COM-rismID: pe30111147
!!!CDT: 1815/08/14-1895/11/12
!!!CNT: Polish
!!!OTL: Z tamtej strony jezioreczka
!!!PDT:
!!!AGN:
!!!SMS-siglum: PL-Wtm
!!!SMS-shelfmark: R 1226
!!!SMS-shelfwork: 007 W
!!!SMS-variant:
!!!SMS-altvar:
!!!NIFC-rismSourceID: 1001083986
!!!NIFC-islandoraID:
!!!URL-pdf-islandora:
!!!URL-scan:
!!!ONB-nifc: UWAGA: No. 55
!!!OMD: Allegretto
!!!AIN: 1 empty
!!!key:
**kern	**fing	**kern	**fing	**dynam
*part1	*part1	*part1	*part1	*part1
*staff2	*staff2	*staff1	*staff1	*
*>[A,A]	*>[A,A]	*>[A,A]	*>[A,A]	*>[A,A]
*>A	*>A	*>A	*>A	*>A
*Iempty	*	*Iforte	*	*
*	*	*I"Fortepian	*	*
*clefF4	*	*clefG2	*	*
*k[f#]	*	*k[f#]	*	*
*G:	*	*G:	*	*
*M3/4	*	*M3/4	*	*
*all\right	*	*all\right	*	*
=1	=1	=1	=1	=1
*^	*	*	*	*
*2\right	*2\right	*below	*	*	*
!	!	!	!LO:TX:Bi:t=No 55.	!	!
!	!LO:N:vis=2	!	!LO:TX:i:t=Z tamtej strony jezioreczka. P.L.P.	!	!LO:DY:t=mf.
2.G/	4G\	5	(4.g/	1	mf
.	4d 4B\	.	.	.	.
.	.	.	8a/L	.	.
.	4d 4B\	.	8b/	.	.
.	.	.	8cc/J)	.	.
=2	=2	=2	=2	=2	=2
!	!LO:N:vis=2	!	!	!	!
2.G/	4G\	.	8.dd\L	.	.
.	.	.	16dd\Jk	.	.
.	4d 4B\	.	(4b\	.	.
.	4d 4B\	.	4g/)	.	.
=3	=3	=3	=3	=3	=3
!	!LO:N:vis=2	!	!	!	!
2.G/	4G\	.	(8cc\L	3	.
.	.	.	8ee\J)	5	.
.	4e 4c\	.	4ee\	3	.
.	4e 4c\	.	(8gg\L	.	.
.	.	.	8ff#\J)	.	.
=4	=4	=4	=4	=4	=4
*	*	*	*2\right	*	*
!	!LO:N:vis=2	!	!	!	!
2.G/	4G\	.	2.dd^\	.	.
.	4d 4B'>\	.	.	.	.
.	4d 4B'>\	.	.	.	.
!!LO:LB:g=original
=5	=5	=5	=5	=5	=5
!	!LO:N:vis=2	!	!	!	!
2.BB/	4BB\	.	8dd|\	.	.
.	.	.	8r	.	.
.	4G 4D\	.	2gg^\	.	.
.	4G 4D\	.	.	.	.
=6	=6	=6	=6	=6	=6
!	!LO:N:vis=2	!	!	!	!
2.C/	4C\	.	(8ee\L	4	.
.	.	.	8cc\J	2	.
.	4A 4E\	.	4.a/	1	.
.	4A 4E\	.	.	.	.
.	.	.	8g/)	3	.
=7	=7	=7	=7	=7	=7
!	!LO:N:vis=2	!	!	!	!
2.D/	4D\	.	(8f#/L	2	.
.	.	.	8a/J)	3	.
.	4A 4F#\	.	4cc\	5	.
.	4c 4A 4F#\	.	(8cc\L	4	.
.	.	.	8b\J)	.	.
*v	*v	*	*	*	*
=8	=8	=8	=8	=8
4B 4G\	.	2g/	.	.
4B 4G\	.	.	.	.
4r	.	4r	.	.
=:|!	=:|!	=:|!	=:|!	=:|!
*-	*-	*-	*-	*-
!!!system-decoration: {p1}
!!!RDF**kern: > = above
!!!RDF**kern: < = below
!!!RDF**kern: | = vertical stroke
!!!ENC: Andrzej Kubiczek
!!!END: 2021-05-01
!!!ENC: Andrzej Gręziak
!!!END: 2021-04-17
